icons/op-text-24.svg

<svg width="24" height="24" viewBox="0 0 24 24" fill="none" xmlns="http://www.w3.org/2000/svg">
<path d="M8.44017 20V19.0588C9.30769 19.0275 9.81624 18.9647 9.99573 18.8706C10.1453 18.8078 10.265 18.651 10.3248 18.4314C10.4145 18.0863 10.4444 17.1137 10.4444 15.4824V8.61176C10.4444 6.76078 10.4444 5.69412 10.4145 5.47451H8.85897C8.0812 5.47451 7.36325 5.50588 6.76496 5.56863C6.52564 5.56863 6.40598 5.6 6.37607 5.66275C6.31624 5.69412 6.25641 5.81961 6.2265 6.03922C6.13675 6.57255 6.07692 7.16863 6.07692 7.85882H5.17949C5.14957 6.2902 5.11966 5.41176 5.11966 5.19216C5.08974 4.87843 5.05983 4.50196 5 4.12549L5.08974 4C5.44872 4.03137 5.80769 4.06275 6.19658 4.09412C6.82479 4.09412 8.02137 4.12549 9.78632 4.12549H14.2137C16.0385 4.12549 17.265 4.09412 17.8632 4.09412C18.2222 4.06275 18.5513 4.03137 18.8803 4L19 4.12549C18.9402 4.59608 18.8803 5.00392 18.8803 5.34902C18.8803 5.41176 18.8504 6.22745 18.8205 7.85882H17.9231C17.9231 7.26275 17.8632 6.69804 17.7735 6.13333C17.7436 5.88235 17.6838 5.69412 17.6538 5.66275C17.594 5.6 17.4744 5.6 17.2949 5.56863C16.6966 5.50588 15.9786 5.47451 15.141 5.47451H13.5855C13.5556 5.75686 13.5556 6.79216 13.5556 8.61176V15.451C13.5556 17.1137 13.5855 18.1176 13.6752 18.4314C13.735 18.651 13.8248 18.7765 14.0043 18.8706C14.1538 18.9647 14.6923 19.0275 15.5598 19.0588V20C14.1538 19.9373 12.9573 19.9059 12 19.9059C10.9829 19.9059 9.78632 19.9373 8.44017 20Z" fill="black"/>
</svg>

<svg xmlns="http://www.w3.org/2000/svg" width="24" height="24" viewBox="0 0 24 24"><path d="M8.44 20v-.941c.868-.032 1.376-.094 1.556-.188.149-.063.269-.22.329-.44.09-.345.119-1.317.119-2.949v-6.87c0-1.851 0-2.918-.029-3.137H8.859c-.778 0-1.496.031-2.094.094-.239 0-.359.031-.389.094-.06.031-.12.157-.15.376-.089.534-.149 1.13-.149 1.82h-.898C5.15 6.29 5.12 5.412 5.12 5.192c-.03-.314-.06-.69-.12-1.067L5.09 4c.359.031.718.063 1.107.094.628 0 1.824.031 3.589.031h4.428c1.824 0 3.051-.031 3.649-.031.359-.031.688-.063 1.017-.094l.12.125c-.06.471-.12.879-.12 1.224 0 .063-.03.878-.06 2.51h-.897c0-.596-.06-1.161-.15-1.726-.029-.251-.089-.439-.119-.47-.06-.063-.18-.063-.359-.094a20.98 20.98 0 0 0-2.154-.094h-1.556c-.029.282-.029 1.317-.029 3.137v6.839c0 1.663.029 2.667.119 2.98.06.22.15.345.329.44.15.094.688.156 1.556.188V20a81.952 81.952 0 0 0-3.56-.094c-1.017 0-2.214.031-3.56.094Z"/></svg>
